X: 16650
T: Hanly's
R: reel
M: 4/4
K: Cmajor
~E3G A2AB|cded cAAG|GGEG AGAB|cAGE EDDF:|
eggg gede|~g3a gedg|eggg gedB|cded cA~A2|
egga gede|~g2ag gedg|eggg a3g|gedB cBAG|

